X:1
T:Psalm Chant
T:David Passmore (b.1994)
T:Psalm Chant
T:Copyright © 
C:David Passmore
C:(b.1994)
Z:Copyright ©
%%score [ ( 1 2 ) ( 3 4 ) ]
L:1/8
Q:1/2=110
M:4/4
K:C
V:1 treble nm="SOPRANO ALTO" snm="S. A."
V:2 treble 
V:3 bass nm="TENOR BASS" snm="T. B."
V:4 bass 
V:1
"^Psalm 142                                                   (Most Psalms fit to this Chant)""^1. I cried unto the Lord / with my / voice : yea, even / unto the Lord / did I make my suppli- / cation. 2. I poured /out my · complaints / before him : and / shewed him / of · my trouble. 3. When my spirit was in heaviness thou /knew-est my/ path : in the way wherein I / walked have they /pri-vil-y · laid a / snare for me. 4. I looked / also upon my / right hand : and saw    there was / no man that / would know / me.5. I had no / place · to flee / unto : and / no man / cared · for my / soul. 6. I cried unto / thee O Lord and / said : Thou art my hope, and my portion / in the / land · of the / living. 7. Consider / my com-/plaint : for / I am / brought · very / low. 8. O deliver me / from my / persecutors : for / they · are too / strong / for me. 2nd Part (†):9. Bring my soul out of prison, that I may give / thanks ·  unto thy / Name : which thing if thou wilt grant me, then shall the / righteous resort /                                                                                                                                                                                                 unto my / company.]" ^F8 | %1
 A4 A4 | d8 | ^F8 | G4 A4 | E4 ^F4 | E8 | A6 G2 | ^F4 B4 | ^c8 | A8 | B4 G4 | E4 E4 | D8 |] %14
V:2
 D8 | ^F4 E4 | ^F8 | D8 | D4 D4 | ^C4 D4 | ^C8 | E8 | D4 E4 | E8 | D8 | G4 B,4 | D4 ^C4 | D8 |] %14
V:3
 A,8 | D4 ^C4 | D8 | D8 | D4 A,4 | A,4 A,4 | A,8 | ^C8 | D4 B,4 | A,8 | A,8 | D4 G,4 | A,6 G,2 | %13
 ^F,8 |] %14
V:4
 D,8 | D,4 A,4 | B,8 | B,6 A,2 | B,4 ^F,4 | E,4 D,4 | A,,8 | A,8 | B,4 ^G,4 | A,8 | ^F,8 | %11
 G,4 E,4 | A,,8 | D,8 |] %14

